X: 041039
T: Drunken Police Car
T: Good Morning to Your Nightcap
S: "ITM Session Tunes vol 3" ("Sully")/O'Neill's 1850
Z: B.Black
M: 4/4
L: 1/8
R: reel
K: Ador
e4 d4|cBcd e2 d2|e4 d4|cABG E2 D2|
e4 d4|cBcd e2 d2|(3efg fa gedB|cABG E2 D2||
EAAc BG G2|cBcd e2 d2|EAAc BG G2|cABG E2 D2|
EAAc BG G2|cBcd e2 d2|(3efg fa gedB|cABG E2 D2||
